Adwaita++-Light/panel/16/si-syncthing-3.svg

<svg height="16" width="16" xmlns="http://www.w3.org/2000/svg">
  <path d="m14.062178 4.5a7 7 0 0 0 -9.5621779-2.5621778 7 7 0 0 0 -2.5621779 9.5621778 7 7 0 0 0 9.5621778 2.562178 7 7 0 0 0 2.562178-9.562178zm-1.732051 1a5 5 0 0 1 -1.059052 6.278949 1.5 1.5 0 0 1 -.704088 1.667203 1.5 1.5 0 0 1 -2.0065919-.483333 5 5 0 0 1 -3.5305033-.943136 1.5 1.5 0 0 1 -1.9760439-.586671 1.5 1.5 0 0 1 .2255355-1.7968606 5 5 0 0 1 2.2206167-5.9662784 5 5 0 0 1 .0754006-.0412773 1.5 1.5 0 0 1 .7236375-1.5747481 1.5 1.5 0 0 1 2.0490381.5490381 1.5 1.5 0 0 1 .1649552.430242 5 5 0 0 1 3.8170955 2.4668723zm-.866025.5a4 4 0 0 0 -3.0736015-1.9759771 1.5 1.5 0 0 1 -.5914623.6279009 1.5 1.5 0 0 1 -.0543882.0268905l.3647375 2.5340878a1.5 1.5 0 0 1 1.006638.7201106 1.5 1.5 0 0 1 -.1599707 1.7229226l.5878907 1.0182567a1.5 1.5 0 0 1 1.1596625.266407 4 4 0 0 0 .760494-4.940599zm-4.7084404-1.1786951a1.5 1.5 0 0 1 -.6759014-.3269455 4 4 0 0 0 -.0797601.041539 4 4 0 0 0 -1.8143611 4.6582161 1.5 1.5 0 0 1 1.140169.349831l1.0182568-.5878908a1.5 1.5 0 0 1 .7229226-1.5720801 1.5 1.5 0 0 1 .0543882-.0268906zm1.3343677 5.3346301a1.5 1.5 0 0 1 -1.2459644-.3338552l-1.0182569.5878912a1.5 1.5 0 0 1 -.1024619.87331 4 4 0 0 0 2.6039856.697736 1.5 1.5 0 0 1 .3505918-.806823z" fill="#444"/>
</svg>

<svg xmlns="http://www.w3.org/2000/svg" width="16" height="16" version="1.1">
 <defs>
  <style id="current-color-scheme" type="text/css">
   .ColorScheme-Text { color:#444444; } .ColorScheme-Highlight { color:#4285f4; }
  </style>
 </defs>
 <path style="fill:currentColor" class="ColorScheme-Text" d="M 14.062178,4.5 A 7,7 0 0 0 4.5000001,1.9378222 7,7 0 0 0 1.9378222,11.5 7,7 0 0 0 11.5,14.062178 7,7 0 0 0 14.062178,4.5 Z m -1.732051,1 A 5,5 0 0 1 11.271075,11.778949 1.5,1.5 0 0 1 10.566987,13.446152 1.5,1.5 0 0 1 8.5603951,12.962819 5,5 0 0 1 5.0298918,12.019683 1.5,1.5 0 0 1 3.0538479,11.433012 1.5,1.5 0 0 1 3.2793834,9.6361514 5,5 0 0 1 5.5000001,3.669873 5,5 0 0 1 5.5754007,3.6285957 1.5,1.5 0 0 1 6.2990382,2.0538476 1.5,1.5 0 0 1 8.3480763,2.6028857 1.5,1.5 0 0 1 8.5130315,3.0331277 5,5 0 0 1 12.330127,5.5 Z M 11.464102,6 A 4,4 0 0 0 8.3905005,4.0240229 1.5,1.5 0 0 1 7.7990382,4.6519238 1.5,1.5 0 0 1 7.74465,4.6788143 L 8.1093875,7.2129021 A 1.5,1.5 0 0 1 9.1160255,7.9330127 1.5,1.5 0 0 1 8.9560548,9.6559353 L 9.5439455,10.674192 A 1.5,1.5 0 0 1 10.703608,10.940599 4,4 0 0 0 11.464102,6 Z M 6.7556616,4.8213049 A 1.5,1.5 0 0 1 6.0797602,4.4943594 4,4 0 0 0 6.0000001,4.5358984 4,4 0 0 0 4.185639,9.1941145 1.5,1.5 0 0 1 5.325808,9.5439455 L 6.3440648,8.9560547 A 1.5,1.5 0 0 1 7.0669874,7.3839746 1.5,1.5 0 0 1 7.1213756,7.357084 L 6.7556616,4.8213049 Z M 8.0900293,10.155935 A 1.5,1.5 0 0 1 6.8440649,9.8220798 L 5.825808,10.409971 a 1.5,1.5 0 0 1 -0.1024619,0.87331 4,4 0 0 0 2.6039856,0.697736 1.5,1.5 0 0 1 0.3505918,-0.806823 L 8.0900293,10.155935 Z"/>
</svg>
